icons/evolvere-blue-folders-flat-vivid-dark-fallback/apps/64/spideroak.svg

<?xml version="1.0" encoding="UTF-8" standalone="no"?>
<!-- Created with Inkscape (http://www.inkscape.org/) -->

<svg
   xmlns:dc="http://purl.org/dc/elements/1.1/"
   xmlns:cc="http://creativecommons.org/ns#"
   xmlns:rdf="http://www.w3.org/1999/02/22-rdf-syntax-ns#"
   xmlns:svg="http://www.w3.org/2000/svg"
   xmlns="http://www.w3.org/2000/svg"
   xmlns:xlink="http://www.w3.org/1999/xlink"
   xmlns:sodipodi="http://sodipodi.sourceforge.net/DTD/sodipodi-0.dtd"
   xmlns:inkscape="http://www.inkscape.org/namespaces/inkscape"
   width="64"
   height="64"
   id="svg13094"
   version="1.1"
   inkscape:version="0.91+devel r"
   sodipodi:docname="spideroak.svg">
  <sodipodi:namedview
     id="base"
     pagecolor="#ffffff"
     bordercolor="#666666"
     borderopacity="1.0"
     inkscape:pageopacity="0"
     inkscape:pageshadow="2"
     inkscape:zoom="11.313709"
     inkscape:cx="28.466776"
     inkscape:cy="35.243453"
     inkscape:document-units="px"
     inkscape:current-layer="svg13094"
     showgrid="false"
     inkscape:snap-bbox="true"
     inkscape:bbox-paths="true"
     inkscape:bbox-nodes="true"
     inkscape:snap-bbox-edge-midpoints="true"
     inkscape:snap-bbox-midpoints="true"
     inkscape:object-paths="true"
     inkscape:snap-intersection-paths="true"
     inkscape:object-nodes="true"
     inkscape:snap-smooth-nodes="true"
     inkscape:snap-midpoints="true"
     inkscape:snap-object-midpoints="true"
     inkscape:snap-center="true"
     showguides="false"
     inkscape:guide-bbox="true"
     inkscape:window-width="1920"
     inkscape:window-height="1023"
     inkscape:window-x="-10"
     inkscape:window-y="35"
     inkscape:window-maximized="1"
     inkscape:snap-global="true"
     fit-margin-top="0"
     fit-margin-left="0"
     fit-margin-right="0"
     fit-margin-bottom="0"
     showborder="true"
     inkscape:showpageshadow="false"
     inkscape:snap-page="true">
    <inkscape:grid
       type="xygrid"
       id="grid3075"
       empspacing="5"
       visible="true"
       enabled="true"
       snapvisiblegridlinesonly="true"
       originx="1.6362304e-08px"
       originy="18px" />
    <sodipodi:guide
       orientation="0,1"
       position="-11,30"
       id="guide9148" />
    <sodipodi:guide
       orientation="1,0"
       position="32,70"
       id="guide9150" />
  </sodipodi:namedview>
  <defs
     id="defs13096">
    <linearGradient
       id="linearGradient3094">
      <stop
         offset="0"
         style="stop-color:#46618c;stop-opacity:1;"
         id="stop3096" />
      <stop
         offset="1"
         style="stop-color:#37425d;stop-opacity:1;"
         id="stop3104" />
    </linearGradient>
    <radialGradient
       inkscape:collect="always"
       xlink:href="#linearGradient3094"
       id="radialGradient4022"
       gradientUnits="userSpaceOnUse"
       gradientTransform="matrix(6.8856667e-8,1.5625001,-1.4375,6.3348129e-8,57.491254,-34.030912)"
       cx="30.739782"
       cy="17.037395"
       fx="30.739782"
       fy="17.037395"
       r="32" />
  </defs>
  <metadata
     id="metadata13099">
    <rdf:RDF>
      <cc:Work
         rdf:about="">
        <dc:format>image/svg+xml</dc:format>
        <dc:type
           rdf:resource="http://purl.org/dc/dcmitype/StillImage" />
        <dc:title></dc:title>
      </cc:Work>
    </rdf:RDF>
  </metadata>
  <path
     inkscape:connector-curvature="0"
     style="color:#000000;fill:url(#radialGradient4022);fill-opacity:1;fill-rule:nonzero;stroke:none;stroke-width:2.28571415;marker:none;visibility:visible;display:inline;overflow:visible;enable-background:accumulate"
     d="m 0,4 0,30 0,28 2,2 30,0 30,0 2,-2 L 64,34 64,4 32,4 0,4 z"
     id="path4020" />
  <path
     id="path6538"
     d="m 0,4 0,30 0,28 2,2 30,0 30,0 2,-2 L 64,34 64,4 32,4 0,4 z"
     style="color:#000000;fill:#4b5569;fill-opacity:1;fill-rule:nonzero;stroke:none;stroke-width:2.28571415;marker:none;visibility:visible;display:inline;overflow:visible;enable-background:accumulate"
     inkscape:connector-curvature="0" />
  <path
     style="color:#000000;fill:#7483a3;fill-opacity:1;fill-rule:nonzero;stroke:none;marker:none;visibility:visible;display:inline;overflow:visible;enable-background:accumulate"
     d="M 2 0 L 0 1 L 0 4 L 19.5625 4 L 39.125 4 L 64 4 L 64 1 L 62 0 L 39.125 0 L 19.5625 0 L 2 0 z "
     id="path6688" />
  <path
     d="M 64,6 62,4 64,3 z"
     id="path3028"
     style="fill:#000000;fill-opacity:0.10215054"
     inkscape:connector-curvature="0" />
  <g
     id="g3043"
     inkscape:export-filename="folder.png"
     inkscape:export-xdpi="90"
     inkscape:export-ydpi="90"
     transform="translate(-0.62500009,0.082283)" />
  <g
     id="scalable"
     transform="matrix(1.0385892,0,0,1.0385892,1214.7222,1878.8121)"
     inkscape:label="#g3701"
     style="fill:#ffffff" />
  <path
     style="fill:#8290ad;fill-opacity:1;fill-rule:nonzero"
     d="M 0,3 0,6 2,4 Z"
     id="path4298"
     inkscape:connector-curvature="0"
     sodipodi:nodetypes="cccc" />
  <g
     id="g3081"
     transform="translate(64.081548,-2.0329313)">
    <rect
       style="color:#000000;fill:#d33d34;fill-opacity:1;fill-rule:nonzero;stroke:none;stroke-width:0.50000000000000000;marker:none;visibility:visible;display:inline;overflow:visible;enable-background:accumulate"
       id="rect3024"
       width="8"
       height="22"
       x="-36.081547"
       y="34.032932" />
    <rect
       inkscape:transform-center-y="-7.0710677"
       inkscape:transform-center-x="7.0710677"
       style="color:#000000;fill:#f08c12;fill-opacity:1;fill-rule:nonzero;stroke:none;stroke-width:0.5;marker:none;visibility:visible;display:inline;overflow:visible;enable-background:accumulate"
       id="rect3886"
       width="8"
       height="28"
       x="44.871319"
       y="-7.5011587"
       transform="matrix(-0.70710678,0.70710678,-0.70710678,-0.70710678,0,0)" />
    <rect
       inkscape:transform-center-y="-2.5881908"
       inkscape:transform-center-x="9.6592594"
       style="color:#000000;fill:#ed6613;fill-opacity:1;fill-rule:nonzero;stroke:none;stroke-width:0.50000000000000000;marker:none;visibility:visible;display:inline;overflow:visible;enable-background:accumulate"
       id="rect3888"
       width="8"
       height="28"
       x="40.074383"
       y="17.403568"
       transform="matrix(-0.25881905,0.96592583,-0.96592583,-0.25881905,0,0)" />
    <rect
       inkscape:transform-center-x="9.6592578"
       style="color:#000000;fill:#d67822;fill-opacity:1;fill-rule:nonzero;stroke:none;stroke-width:0.50000000000000000;marker:none;visibility:visible;display:inline;overflow:visible;enable-background:accumulate"
       id="rect3890"
       width="8"
       height="28"
       x="23.467751"
       y="36.573223"
       transform="matrix(0.25881905,0.96592583,-0.96592583,0.25881905,0,0)"
       inkscape:transform-center-y="2.5881899" />
    <rect
       inkscape:transform-center-x="-9.6592571"
       style="color:#000000;fill:#d67822;fill-opacity:1;fill-rule:nonzero;stroke:none;stroke-width:0.50000000000000000;marker:none;visibility:visible;display:inline;overflow:visible;enable-background:accumulate"
       id="rect3892"
       width="8"
       height="28"
       x="-31.467751"
       y="-44.573227"
       transform="matrix(-0.25881905,-0.96592583,0.96592583,-0.25881905,0,0)"
       inkscape:transform-center-y="-2.5881904" />
    <rect
       inkscape:transform-center-y="2.5881897"
       transform="matrix(0.25881904,-0.96592583,0.96592583,0.25881904,0,0)"
       y="-25.403568"
       x="-48.074383"
       height="28"
       width="8"
       id="rect3867"
       style="color:#000000;fill:#ed6613;fill-opacity:1;fill-rule:nonzero;stroke:none;stroke-width:0.50000000000000000;marker:none;visibility:visible;display:inline;overflow:visible;enable-background:accumulate"
       inkscape:transform-center-x="-9.6592574" />
    <rect
       inkscape:transform-center-y="-9.6592587"
       inkscape:transform-center-x="2.5881899"
       style="color:#000000;fill:#fdb016;fill-opacity:1;fill-rule:nonzero;stroke:none;stroke-width:0.5;marker:none;visibility:visible;display:inline;overflow:visible;enable-background:accumulate"
       id="rect3841"
       width="8"
       height="28"
       x="36.573223"
       y="-31.467751"
       transform="matrix(-0.96592583,0.25881905,-0.25881905,-0.96592583,0,0)" />
    <rect
       inkscape:transform-center-y="-9.6592586"
       inkscape:transform-center-x="-2.5881894"
       style="color:#000000;fill:#f8c605;fill-opacity:1;fill-rule:nonzero;stroke:none;stroke-width:0.5;marker:none;visibility:visible;display:inline;overflow:visible;enable-background:accumulate"
       id="rect3843"
       width="8"
       height="28"
       x="17.403568"
       y="-48.074383"
       transform="matrix(-0.96592583,-0.25881905,0.25881905,-0.96592583,0,0)" />
    <rect
       inkscape:transform-center-y="-7.0710678"
       transform="matrix(-0.70710678,-0.70710678,0.70710678,-0.70710678,0,0)"
       y="-52.871319"
       x="-7.5011582"
       height="28"
       width="8"
       id="rect3046"
       style="color:#000000;fill:#ffd101;fill-opacity:1;fill-rule:nonzero;stroke:none;stroke-width:0.5;marker:none;visibility:visible;display:inline;overflow:visible;enable-background:accumulate"
       inkscape:transform-center-x="-7.0710679" />
    <path
       inkscape:connector-curvature="0"
       id="path3872"
       d="m -30.010995,29.305527 -2.070553,-7.72741 -2.070553,7.727409 2.070553,2.070554 z"
       style="color:#000000;fill:#eb8b1b;fill-opacity:1;fill-rule:nonzero;stroke:none;stroke-width:0.5;marker:none;visibility:visible;display:inline;overflow:visible;enable-background:accumulate" />
    <path
       inkscape:connector-curvature="0"
       id="path3874"
       d="m -30.010995,29.305527 0.757875,2.828427 2.828425,-0.757875 2.070552,-7.727404 z"
       style="color:#000000;fill:#f4a417;fill-opacity:1;fill-rule:nonzero;stroke:none;stroke-width:0.5;marker:none;visibility:visible;display:inline;overflow:visible;enable-background:accumulate" />
    <path
       inkscape:connector-curvature="0"
       id="path3876"
       d="m -18.697286,29.305527 -5.656854,5.656853 -2.828429,-0.757875 0.757874,-2.828426 z"
       style="color:#000000;fill:#e6791e;fill-opacity:1;fill-rule:nonzero;stroke:none;stroke-width:0.5;marker:none;visibility:visible;display:inline;overflow:visible;enable-background:accumulate" />
    <path
       inkscape:connector-curvature="0"
       id="path3878"
       d="m -34.152101,29.305526 -0.757875,2.828426 -2.828426,-0.757874 -2.070552,-7.727404 z"
       style="color:#000000;fill:#e26a1c;fill-opacity:1;fill-rule:nonzero;stroke:none;stroke-width:0.5;marker:none;visibility:visible;display:inline;overflow:visible;enable-background:accumulate" />
    <path
       inkscape:connector-curvature="0"
       id="path3880"
       d="m -37.738402,31.376078 0.757875,2.828428 -2.828428,0.757875 -5.656857,-5.656857 z"
       style="color:#000000;fill:#d94c1e;fill-opacity:1;fill-rule:nonzero;stroke:none;stroke-width:0.5;marker:none;visibility:visible;display:inline;overflow:visible;enable-background:accumulate" />
    <path
       inkscape:connector-curvature="0"
       id="path3882"
       d="m -47.536358,37.032933 7.727403,-2.070552 3.265986,3.265986 -0.437559,1.632992 z"
       style="color:#000000;fill:#d43a20;fill-opacity:1;fill-rule:nonzero;stroke:none;stroke-width:0.5;marker:none;visibility:visible;display:inline;overflow:visible;enable-background:accumulate" />
    <path
       inkscape:connector-curvature="0"
       id="path3884"
       d="m -27.620127,38.228367 0.437559,1.632993 10.555836,-2.828427 -7.727408,-2.070553 z"
       style="color:#000000;fill:#d94a1e;fill-opacity:1;fill-rule:nonzero;stroke:none;stroke-width:0.5;marker:none;visibility:visible;display:inline;overflow:visible;enable-background:accumulate" />
    <path
       inkscape:connector-curvature="0"
       id="path3894"
       d="m -37.738402,37.032934 -2.070553,-2.070553 2.828428,-0.757875 0.437559,1.632994 z"
       style="color:#000000;fill:#c11f1c;fill-opacity:1;fill-rule:nonzero;stroke:none;stroke-width:0.5;marker:none;visibility:visible;display:inline;overflow:visible;enable-background:accumulate" />
    <path
       sodipodi:nodetypes="ccccc"
       inkscape:connector-curvature="0"
       id="path3896"
       d="m -36.980527,34.204506 -0.757875,-2.828428 2.828426,0.757876 -0.43756,1.632994 z"
       style="color:#000000;fill:#d3371e;fill-opacity:1;fill-rule:nonzero;stroke:none;stroke-width:0.5;marker:none;visibility:visible;display:inline;overflow:visible;enable-background:accumulate" />
    <path
       style="color:#000000;fill:#d2531c;fill-opacity:1;fill-rule:nonzero;stroke:none;stroke-width:0.5;marker:none;visibility:visible;display:inline;overflow:visible;enable-background:accumulate"
       d="m -34.909976,32.133954 1.632994,0.43756 1.195434,-1.195434 -2.070553,-2.070554 z"
       id="path3900"
       inkscape:connector-curvature="0"
       inkscape:transform-center-x="1.414214"
       inkscape:transform-center-y="-6.094412" />
    <path
       style="color:#000000;fill:#ea791d;fill-opacity:1;fill-rule:nonzero;stroke:none;stroke-width:0.5;marker:none;visibility:visible;display:inline;overflow:visible;enable-background:accumulate"
       d="m -32.08155,31.376079 1.195435,1.195435 1.632993,-0.43756 -0.757874,-2.828428 z"
       id="path3902"
       inkscape:connector-curvature="0"
       inkscape:transform-center-x="-1.414212"
       inkscape:transform-center-y="-6.094412" />
    <path
       style="color:#000000;fill:#d7601c;fill-opacity:1;fill-rule:nonzero;stroke:none;stroke-width:0.5;marker:none;visibility:visible;display:inline;overflow:visible;enable-background:accumulate"
       d="m -29.253123,32.133952 0.437559,1.632995 1.632994,0.437559 0.757875,-2.828428 z"
       id="path3904"
       inkscape:connector-curvature="0"
       inkscape:transform-center-x="-4.242639"
       inkscape:transform-center-y="-4.24264" />
    <path
       style="color:#000000;fill:#94191b;fill-opacity:1;fill-rule:nonzero;stroke:none;stroke-width:0.50000000000000000;marker:none;visibility:visible;display:inline;overflow:visible;enable-background:accumulate"
       d="m -33.269048,32.564182 -0.875,0.875 -1.21875,0.3125 -0.3125,1.21875 -0.875,0.875 0.3125,1.1875 -0.3125,1.1875 0.875,0.875 0.3125,1.21875 1.21875,0.3125 0.875,0.875 1.1875,-0.3125 1.1875,0.3125 0.875,-0.875 1.21875,-0.3125 0.3125,-1.21875 0.875,-0.875 -0.3125,-1.1875 0.3125,-1.1875 -0.875,-0.875 -0.3125,-1.21875 -1.21875,-0.3125 -0.875,-0.875 -1.1875,0.3125 -1.1875,-0.3125 z"
       id="path3036"
       inkscape:connector-curvature="0" />
    <path
       style="color:#000000;fill:#d83f1f;fill-opacity:1;fill-rule:nonzero;stroke:none;stroke-width:0.5;marker:none;visibility:visible;display:inline;overflow:visible;enable-background:accumulate"
       d="m -27.18257,34.204504 -0.43756,1.632994 1.195434,1.195434 2.070554,-2.070553 z"
       id="path3906"
       inkscape:connector-curvature="0"
       inkscape:transform-center-x="-6.094412"
       inkscape:transform-center-y="-1.414214" />
    <path
       style="color:#000000;fill:#930003;fill-opacity:0.79211468;fill-rule:nonzero;stroke:none;stroke-width:0.50000000000000000;marker:none;visibility:visible;display:inline;overflow:visible;enable-background:accumulate"
       d="M 32 29.34375 L 30.8125 30.53125 L 32 30.84375 L 33.1875 30.53125 L 32 29.34375 z M 33.1875 30.53125 L 34.0625 31.40625 L 35.28125 31.71875 L 34.84375 30.09375 L 33.1875 30.53125 z M 35.28125 31.71875 L 35.59375 32.9375 L 36.46875 33.8125 L 36.90625 32.15625 L 35.28125 31.71875 z M 36.46875 33.8125 L 36.15625 35 L 36.46875 36.1875 L 37.65625 35 L 36.46875 33.8125 z M 36.46875 36.1875 L 35.59375 37.0625 L 35.28125 38.28125 L 36.90625 37.84375 L 36.46875 36.1875 z M 35.28125 38.28125 L 34.0625 38.59375 L 33.1875 39.46875 L 34.84375 39.90625 L 35.28125 38.28125 z M 33.1875 39.46875 L 32 39.15625 L 30.8125 39.46875 L 32 40.65625 L 33.1875 39.46875 z M 30.8125 39.46875 L 29.9375 38.59375 L 28.71875 38.28125 L 29.15625 39.90625 L 30.8125 39.46875 z M 28.71875 38.28125 L 28.40625 37.0625 L 27.53125 36.1875 L 27.09375 37.84375 L 28.71875 38.28125 z M 27.53125 36.1875 L 27.84375 35 L 27.53125 33.8125 L 26.34375 35 L 27.53125 36.1875 z M 27.53125 33.8125 L 28.40625 32.9375 L 28.71875 31.71875 L 27.09375 32.15625 L 27.53125 33.8125 z M 28.71875 31.71875 L 29.9375 31.40625 L 30.8125 30.53125 L 29.15625 30.09375 L 28.71875 31.71875 z "
       transform="translate(-64.081548,2.0329313)"
       id="path3061" />
  </g>
</svg>

<svg xmlns="http://www.w3.org/2000/svg" viewBox="0 0 64 64"><defs><radialGradient id="0" gradientUnits="userSpaceOnUse" gradientTransform="matrix(0 1.5625-1.4375 0 57.49-34.03)" cx="30.74" cy="17.04" r="32"><stop stop-color="#46618c"/><stop offset="1" stop-color="#37425d"/></radialGradient></defs><g color="#000"><path d="m0 4v30 28l2 2h30 30l2-2v-28-30h-32-32" fill="url(#0)"/><path d="m0 4v30 28l2 2h30 30l2-2v-28-30h-32-32" fill="#4b5569"/><path d="m2 0l-2 1v3h19.563 19.563 24.875v-3l-2-1h-22.875-19.563-17.563" fill="#7483a3"/></g><path d="m64 6l-2-2 2-1z" fill-opacity=".102"/><path d="m0 3v3l2-2" fill="#8290ad"/><g transform="translate(64.08-2.033)" color="#000"><path fill="#d33d34" d="m-36.08 34.03h8v22h-8z"/><path transform="matrix(-.70711.70711-.70711-.70711 0 0)" fill="#f08c12" d="m44.871-7.501h8v28h-8z"/><path transform="matrix(-.25882.96593-.96593-.25882 0 0)" fill="#ed6613" d="m40.07 17.404h8v28h-8z"/><g fill="#d67822"><path transform="matrix(.25882.96593-.96593.25882 0 0)" d="m23.468 36.573h8v28h-8z"/><path transform="matrix(-.25882-.96593.96593-.25882 0 0)" d="m-31.468-44.573h8v28h-8z"/></g><path transform="matrix(.25882-.96593.96593.25882 0 0)" fill="#ed6613" d="m-48.07-25.404h8v28h-8z"/><path transform="matrix(-.96593.25882-.25882-.96593 0 0)" fill="#fdb016" d="m36.573-31.468h8v28h-8z"/><path transform="matrix(-.96593-.25882.25882-.96593 0 0)" fill="#f8c605" d="m17.404-48.07h8v28h-8z"/><path transform="matrix(-.70711-.70711.70711-.70711 0 0)" fill="#ffd101" d="m-7.501-52.871h8v28h-8z"/><path d="m-30.01 29.31l-2.071-7.727-2.071 7.727 2.071 2.071z" fill="#eb8b1b"/><path d="m-30.01 29.31l.758 2.828 2.828-.758 2.071-7.727z" fill="#f4a417"/><path d="m-18.697 29.31l-5.657 5.657-2.828-.758.758-2.828z" fill="#e6791e"/><path d="m-34.15 29.31l-.758 2.828-2.828-.758-2.071-7.727z" fill="#e26a1c"/><path d="m-37.738 31.376l.758 2.828-2.828.758-5.657-5.657z" fill="#d94c1e"/><path d="m-47.536 37.03l7.727-2.071 3.266 3.266-.438 1.633z" fill="#d43a20"/><path d="m-27.62 38.23l.438 1.633 10.556-2.828-7.727-2.071z" fill="#d94a1e"/><path d="m-37.738 37.03l-2.071-2.071 2.828-.758.438 1.633z" fill="#c11f1c"/><path d="m-36.981 34.2l-.758-2.828 2.828.758-.438 1.633z" fill="#d3371e"/><path d="m-34.91 32.13l1.633.438 1.195-1.195-2.071-2.071z" fill="#d2531c"/><path d="m-32.08 31.376l1.195 1.195 1.633-.438-.758-2.828z" fill="#ea791d"/><path d="m-29.25 32.13l.438 1.633 1.633.438.758-2.828z" fill="#d7601c"/><path d="m-33.27 32.564l-.875.875-1.219.313-.313 1.219-.875.875.313 1.188-.313 1.188.875.875.313 1.219 1.219.313.875.875 1.188-.313 1.188.313.875-.875 1.219-.313.313-1.219.875-.875-.313-1.188.313-1.188-.875-.875-.313-1.219-1.219-.313-.875-.875-1.188.313-1.188-.313" fill="#94191b"/><path d="m-27.18 34.2l-.438 1.633 1.195 1.195 2.071-2.071z" fill="#d83f1f"/><path d="m32 29.344l-1.188 1.188 1.188.313 1.188-.313-1.188-1.188m1.188 1.188l.875.875 1.219.313-.438-1.625-1.656.438m2.094 1.188l.313 1.219.875.875.438-1.656-1.625-.438m1.188 2.094l-.313 1.188.313 1.188 1.188-1.188-1.188-1.188m0 2.375l-.875.875-.313 1.219 1.625-.438-.438-1.656m-1.188 2.094l-1.219.313-.875.875 1.656.438.438-1.625m-2.094 1.188l-1.188-.313-1.188.313 1.188 1.188 1.188-1.188m-2.375 0l-.875-.875-1.219-.313.438 1.625 1.656-.438m-2.094-1.188l-.313-1.219-.875-.875-.438 1.656 1.625.438m-1.188-2.094l.313-1.188-.313-1.188-1.188 1.188 1.188 1.188m0-2.375l.875-.875.313-1.219-1.625.438.438 1.656m1.188-2.094l1.219-.313.875-.875-1.656-.438-.438 1.625" transform="translate(-64.08 2.033)" fill="#930003" fill-opacity=".792"/></g></svg>
